src/48/apps/office-address-book.svg

<?xml version="1.0" encoding="UTF-8" standalone="no"?>
<svg
   xmlns:dc="http://purl.org/dc/elements/1.1/"
   xmlns:cc="http://creativecommons.org/ns#"
   xmlns:rdf="http://www.w3.org/1999/02/22-rdf-syntax-ns#"
   xmlns:svg="http://www.w3.org/2000/svg"
   xmlns="http://www.w3.org/2000/svg"
   xmlns:sodipodi="http://sodipodi.sourceforge.net/DTD/sodipodi-0.dtd"
   xmlns:inkscape="http://www.inkscape.org/namespaces/inkscape"
   version="1.1"
   width="48"
   height="48"
   id="svg4045"
   sodipodi:docname="office-address-book.svg"
   inkscape:version="0.92.4 (5da689c313, 2019-01-14)">
  <sodipodi:namedview
     pagecolor="#ffffff"
     bordercolor="#666666"
     borderopacity="1"
     objecttolerance="10"
     gridtolerance="10"
     guidetolerance="10"
     inkscape:pageopacity="0"
     inkscape:pageshadow="2"
     inkscape:window-width="1366"
     inkscape:window-height="697"
     id="namedview86"
     showgrid="false"
     inkscape:zoom="6.9532167"
     inkscape:cx="24.885436"
     inkscape:cy="37.080411"
     inkscape:window-x="0"
     inkscape:window-y="0"
     inkscape:window-maximized="1"
     inkscape:current-layer="svg4045" />
  <defs
     id="defs4047" />
  <metadata
     id="metadata4050">
    <rdf:RDF>
      <cc:Work
         rdf:about="">
        <dc:format>image/svg+xml</dc:format>
        <dc:type
           rdf:resource="http://purl.org/dc/dcmitype/StillImage" />
        <dc:title />
      </cc:Work>
    </rdf:RDF>
  </metadata>
  <path
     inkscape:connector-curvature="0"
     style="display:inline;fill:#eeeeee;fill-opacity:1;stroke:#9b876c;stroke-width:1.01739752;stroke-linecap:butt;stroke-linejoin:round;stroke-miterlimit:0;stroke-dasharray:none;stroke-dashoffset:0;stroke-opacity:1"
     id="path2723"
     d="M 40.838991,3.217154 C 40.543588,2.2259354 40.727705,1.4453462 40.56455,0.49999976 H 10.324787 l 0.178478,3.00000004" />
  <path
     inkscape:connector-curvature="0"
     style="color:#000000;display:inline;overflow:visible;visibility:visible;fill:#eeeeee;fill-opacity:1;fill-rule:nonzero;stroke:#272727;stroke-width:0.99999994;stroke-linecap:round;stroke-linejoin:round;stroke-miterlimit:4;stroke-dasharray:none;stroke-dashoffset:0;stroke-opacity:1;marker:none;enable-background:accumulate"
     id="rect5505-21-3-9"
     d="M 11.50026,4.4999996 H 7.5002598 c -0.5708481,0 -1,-0.042333 -1,-0.09756 V 1.6060185 c 0,-0.88791952 0.5590322,-1.10599346 1.2908943,-1.10599346 H 11.50026" />
  <rect
     style="display:inline;fill:#c0af99;fill-opacity:1;stroke:#a79071;stroke-width:1.01904118;stroke-linecap:round;stroke-linejoin:round;stroke-miterlimit:0;stroke-dasharray:none;stroke-dashoffset:0;stroke-opacity:1"
     id="rect2719"
     y="3.5095203"
     x="7.5128837"
     ry="1"
     rx="1"
     height="40.980957"
     width="33.977596" />
  <path
     inkscape:connector-curvature="0"
     style="color:#000000;display:inline;overflow:visible;visibility:visible;fill:#4d4d4d;fill-opacity:1;fill-rule:nonzero;stroke:#272727;stroke-width:1;stroke-linecap:round;stroke-linejoin:round;stroke-miterlimit:4;stroke-dasharray:none;stroke-dashoffset:0;stroke-opacity:1;marker:none;enable-background:accumulate"
     id="rect5505-21-3"
     d="m 11.5,3.4999998 c 0,0 0,28.5091172 0,41.0000002 h -4 c -0.5708481,0 -1,-0.43395 -1,-1 V 3.4999998 Z" />
  <path
     inkscape:connector-curvature="0"
     style="color:#000000;display:inline;overflow:visible;visibility:visible;fill:#4d4d4d;fill-opacity:1;fill-rule:nonzero;stroke:#272727;stroke-width:1;stroke-linecap:round;stroke-linejoin:round;stroke-miterlimit:4;stroke-dasharray:none;stroke-dashoffset:0;stroke-opacity:1;marker:none;enable-background:accumulate"
     id="path3107"
     d="m 25.90625,13.625 c -0.953111,-0.222982 -2.094888,0.462841 -2.094888,0.462841 l -1.025341,0.512955 c 0,0 -1.11109,0.971116 -1.122977,1.301022 -0.625407,1.108477 -0.34035,2.451743 -0.403761,3.664356 0.06095,1.0411 -0.662103,1.812948 -0.299426,2.868623 -0.05291,1.019156 0.785613,1.616868 1.324707,2.354009 0.606697,0.932573 1.430638,2.149386 0.781768,3.265449 -1.199485,1.741178 -3.193647,2.663944 -5.01427,3.612558 -0.618483,0.0634 -0.385641,0.658043 -0.427062,1.081985 -9.85e-4,0.337148 -0.111745,0.784071 0.382287,0.626202 5.455904,0 10.911809,0 16.367713,0 0,-0.583333 0,-1.166667 0,-1.75 -1.762512,-0.893922 -3.602022,-1.851487 -4.837462,-3.441087 -0.74221,-1.0647 0.0017,-2.344044 0.587457,-3.290663 0.456055,-0.788526 1.409297,-1.292368 1.422918,-2.297801 0.350517,-1.02007 -0.178426,-1.86447 -0.27715,-2.837386 -0.129076,-1.289869 0.220232,-2.700355 -0.39486,-3.900461 C 30.041919,14.629565 28.514318,14.091786 27.128057,13.762434 26.725953,13.681214 26.316901,13.628162 25.90625,13.625 Z" />
</svg>

<svg xmlns="http://www.w3.org/2000/svg" width="48" height="48"><path d="M40.839 3.217c-.295-.991-.111-1.772-.274-2.717h-30.24l.178 3" fill="#eee" stroke="#9b876c" stroke-width="1.017" stroke-linejoin="round" stroke-miterlimit="0"/><path style="marker:none" d="M11.5 4.5h-4c-.57 0-1-.042-1-.098V1.606C6.5.718 7.06.5 7.791.5h3.71" color="#000" overflow="visible" fill="#eee" stroke="#272727" stroke-linecap="round" stroke-linejoin="round"/><rect y="3.51" x="7.513" ry="1" rx="1" height="40.981" width="33.978" fill="#c0af99" stroke="#a79071" stroke-width="1.019" stroke-linecap="round" stroke-linejoin="round" stroke-miterlimit="0"/><path style="marker:none" d="M11.5 3.5v41h-4a.98.98 0 0 1-1-1v-40zM25.906 13.625c-.953-.223-2.095.463-2.095.463l-1.025.513s-1.111.97-1.123 1.3c-.625 1.11-.34 2.453-.404 3.665.061 1.041-.662 1.813-.3 2.869-.052 1.019.786 1.617 1.326 2.354.606.932 1.43 2.15.781 3.265-1.2 1.741-3.193 2.664-5.014 3.613-.618.063-.386.658-.427 1.082-.001.337-.112.784.382.626h16.368v-1.75c-1.763-.894-3.602-1.851-4.837-3.441-.743-1.065.001-2.344.587-3.29.456-.79 1.41-1.293 1.423-2.299.35-1.02-.179-1.864-.277-2.837-.13-1.29.22-2.7-.395-3.9-.834-1.228-2.362-1.766-3.748-2.096a6.432 6.432 0 0 0-1.222-.137z" color="#000" overflow="visible" fill="#4d4d4d" stroke="#272727" stroke-linecap="round" stroke-linejoin="round"/></svg>
